!!!OTL: EI WAS BIN ICH FUER A LUSTIGER BUB
!!!ARE: Europa, Mitteleuropa, Deutschland, Hessen, Schwalmthal
!!!SCT: E1002
!!!YEM: Copyright 1995, estate of Helmut Schaffrath.
**kern
*ICvox
*Ivox
*M6/8
*k[]
*C:
=1
{4c
8c
8G
8G
16G
16G
=2
8A
8A
8A
4G}
{8G
=3
8A
8A
8A
8.B
16B
8B
=4
4c
8d
4c
8r}
=5
{4G
8G
8G
8G
16A
16G
=6
4G
8F
4F
8r}
=7
{4F
8F
8F
8F
16G
16F
=8
4F
8E
4E}
{8G
=9
8G
8A
8B
4c
8r}
==
!!!AGN: Tanz - Lied, Zaehl - Geschichte
!!!ONB: ESAC (Essen Associative Code) Database: ERK3
!!!AMT: compound duple
!!!AIN: vox
!!!EED: Helmut Schaffrath
!!!EEV: 1.0
*-
